X:1
T:Title
%%score { 1 | 2 }
L:1/8
Q:1/4=92
M:2/4
K:G
V:1 treble nm="Grand Piano"
V:2 bass 
V:1
 [DB][B,D] [B,D][B,D] | [CE][EG] [EG]2 | Be dB | cB A2 | [DB][B,D] [B,D][B,D] | [CE][EG] [Ec]2 | %6
w: Thoro~Harris * * *||||||
 [DB]2 [CA]2 | [B,G]4 | Bc dd | cB A2 | AB [Fc][Fe] | d>c B2 | Bc dB | [EA][EB] [Ec]2 | %14
w: ||||||||
 [GB]2 [CFA]2 | [B,G]4 |] %16
w: ||
V:2
 [G,,G,][G,,G,] [G,,G,][G,,G,] | [C,G,][C,G,] [C,G,]2 | [G,D][G,CE] [G,B,G][K:bass][G,D] | %3
 [F,A,D][G,D] [D,F,D]2 | [G,,G,][G,,G,] [G,,G,][G,,G,] | [C,G,][C,G,] [C,G,]2 | [D,G,]2 [D,F,]2 | %7
 [G,,G,]4 | [G,D][G,A,D] [G,B,G][K:bass][G,B,D] | [F,A,D][G,D] [D,F,D]2 | %10
 [D,F,D][D,G,D] [D,A,][D,C] | [B,DG]>[A,DF] [G,DG]2 | [G,D][G,A,D] [G,B,G][K:bass][G,D] | %13
 [C,G,][B,,^G,] [A,,A,]2 | [D,D]2 D,2 | G,,4 |] %16

